proprietary/odm/etc/camera/filters_lut/dolby_preview_3dlut.cube
#Created by : Dolby Laboratories
#Copyright: (C) Copyright 2022 Dolby Laboratories
#is_rgb_input 1
#is_rgb_output 1
#input_offset 0.000000
#shape_order 1.000000
#format 6
# MaxLuma:1000.00 MinLuma:0.00010 Eotf=Gamma
#LUT Size
LUT_3D_SIZE 33
#data domain
DOMAIN_MIN 0 0 0
DOMAIN_MAX 1.0 1.0 1.0
#LUT data points
0.0000000000 0.0009775171 0.0000000000
0.0166177917 0.0000000000 0.0000000000
0.0342130996 0.0000000000 0.0009775171
0.0518084057 0.0000000000 0.0029325513
0.0703812316 0.0000000000 0.0039100684
0.0889540538 0.0000000000 0.0048875855
0.1085043997 0.0000000000 0.0068426197
0.1270772219 0.0000000000 0.0078201368
0.1466275603 0.0000000000 0.0087976540
0.1652003974 0.0000000000 0.0107526882
0.1847507358 0.0000000000 0.0127077224
0.2043010741 0.0000000000 0.0136852395
0.2228738964 0.0000000000 0.0156402737
0.2424242496 0.0000000000 0.0175953079
0.2609970570 0.0000000000 0.0195503421
0.2805474102 0.0000000000 0.0215053763
0.2991202474 0.0000000000 0.0234604105
0.3196480870 0.0000000000 0.0254154447
0.3421309888 0.0000000000 0.0283479970
0.3665689230 0.0000000000 0.0303030312
0.3939394057 0.0000000000 0.0342130996
0.4232649207 0.0000000000 0.0371456519
0.4555229843 0.0000000000 0.0410557203
0.4907135963 0.0000000000 0.0459433049
0.5278592110 0.0000000000 0.0498533733
0.5669599175 0.0000000000 0.0547409579
0.6099706888 0.0000000000 0.0606060624
0.6549364328 0.0000000000 0.0674486831
0.7018572688 0.0000000000 0.0733137801
0.7526881695 0.0000000000 0.0801564008
0.8054741025 0.0000000000 0.0879765376
0.8611925840 0.0000000000 0.0957966745
0.9208211303 0.0000000000 0.1045943275
0.0000000000 0.0156402737 0.0000000000
0.0156402737 0.0156402737 0.0000000000
0.0342130996 0.0156402737 0.0000000000
0.0527859256 0.0136852395 0.0009775171
0.0713587478 0.0087976540 0.0029325513
0.0899315774 0.0000000000 0.0039100684
0.1085043997 0.0000000000 0.0058651026
0.1280547380 0.0000000000 0.0068426197
0.1476050764 0.0000000000 0.0087976540
0.1661779135 0.0000000000 0.0107526882
0.1857282519 0.0000000000 0.0117302053
0.2043010741 0.0000000000 0.0136852395
0.2238514125 0.0000000000 0.0156402737
0.2434017658 0.0000000000 0.0175953079
0.2619745731 0.0000000000 0.0195503421
0.2815249264 0.0000000000 0.0215053763
0.3000977635 0.0000000000 0.0234604105
0.3206256032 0.0000000000 0.0254154447
0.3431085050 0.0000000000 0.0273704790
0.3675464392 0.0000000000 0.0303030312
0.3949169219 0.0000000000 0.0332355835
0.4242424369 0.0000000000 0.0371456519
0.4565005004 0.0000000000 0.0410557203
0.4916911125 0.0000000000 0.0449657887
0.5288367271 0.0000000000 0.0498533733
0.5679374337 0.0000000000 0.0547409579
0.6109482050 0.0000000000 0.0606060624
0.6549364328 0.0000000000 0.0674486831
0.7028347850 0.0000000000 0.0733137801
0.7536656857 0.0000000000 0.0801564008
0.8064516187 0.0000000000 0.0879765376
0.8621701002 0.0000000000 0.0957966745
0.9217986465 0.0000000000 0.1045943275
0.0000000000 0.0332355835 0.0000000000
0.0097751711 0.0332355835 0.0000000000
0.0332355835 0.0332355835 0.0000000000
0.0527859256 0.0332355835 0.0000000000
0.0723362640 0.0322580636 0.0000000000
0.0909090936 0.0312805474 0.0000000000
0.1104594320 0.0283479970 0.0029325513
0.1300097704 0.0254154447 0.0048875855
0.1485826075 0.0205278601 0.0068426197
0.1681329459 0.0117302053 0.0087976540
0.1876832843 0.0000000000 0.0107526882
0.2072336227 0.0000000000 0.0127077224
0.2258064449 0.0000000000 0.0146627566
0.2453567982 0.0000000000 0.0166177917
0.2649071217 0.0000000000 0.0185728259
0.2834799588 0.0000000000 0.0205278601
0.3030303121 0.0000000000 0.0224828944
0.3225806355 0.0000000000 0.0244379286
0.3450635374 0.0000000000 0.0273704790
0.3695014715 0.0000000000 0.0303030312
0.3968719542 0.0000000000 0.0332355835
0.4271749854 0.0000000000 0.0361681320
0.4594330490 0.0000000000 0.0400782004
0.4936461449 0.0000000000 0.0449657887
0.5307917595 0.0000000000 0.0498533733
0.5708699822 0.0000000000 0.0547409579
0.6129032373 0.0000000000 0.0606060624
0.6578690410 0.0000000000 0.0664711669
0.7047898173 0.0000000000 0.0733137801
0.7556207180 0.0000000000 0.0801564008
0.8084066510 0.0000000000 0.0879765376
0.8641251326 0.0000000000 0.0957966745
0.9227761626 0.0000000000 0.1036168113
0.0000000000 0.0518084057 0.0000000000
0.0000000000 0.0518084057 0.0000000000
0.0303030312 0.0518084057 0.0000000000
0.0518084057 0.0518084057 0.0000000000
0.0723362640 0.0518084057 0.0000000000
0.0918866098 0.0508308895 0.0000000000
0.1114369482 0.0498533733 0.0000000000
0.1309872866 0.0488758571 0.0000000000
0.1505376399 0.0469208211 0.0019550342
0.1710654944 0.0449657887 0.0058651026
0.1896383166 0.0420332365 0.0078201368
0.2091886550 0.0381231681 0.0097751711
0.2287390083 0.0332355835 0.0127077224
0.2482893467 0.0273704790 0.0146627566
0.2678397000 0.0166177917 0.0166177917
0.2873900235 0.0000000000 0.0185728259
0.3059628606 0.0000000000 0.0205278601
0.3264907002 0.0000000000 0.0234604105
0.3489736021 0.0000000000 0.0254154447
0.3734115362 0.0000000000 0.0283479970
0.4007820189 0.0000000000 0.0322580636
0.4310850501 0.0000000000 0.0351906158
0.4633431137 0.0000000000 0.0391006842
0.4975562096 0.0000000000 0.0439882688
0.5347018838 0.0000000000 0.0488758571
0.5738025308 0.0000000000 0.0537634417
0.6158357859 0.0000000000 0.0596285425
0.6608015895 0.0000000000 0.0664711669
0.7086998820 0.0000000000 0.0723362640
0.7585532665 0.0000000000 0.0801564008
0.8113391995 0.0000000000 0.0869990215
0.8670576811 0.0000000000 0.0948191583
0.9257087111 0.0000000000 0.1036168113
0.0000000000 0.0703812316 0.0000000000
0.0000000000 0.0703812316 0.0000000000
0.0205278601 0.0713587478 0.0000000000
0.0488758571 0.0713587478 0.0000000000
0.0723362640 0.0713587478 0.0000000000
0.0928641260 0.0713587478 0.0000000000
0.1124144644 0.0703812316 0.0000000000
0.1329423338 0.0703812316 0.0000000000
0.1524926722 0.0694037154 0.0000000000
0.1730205268 0.0684261993 0.0000000000
0.1925708652 0.0664711669 0.0000000000
0.2121212184 0.0645161271 0.0048875855
0.2326490730 0.0615835786 0.0087976540
0.2521994114 0.0586510263 0.0117302053
0.2717497647 0.0557184741 0.0136852395
0.2913000882 0.0518084057 0.0166177917
0.3098729253 0.0478983372 0.0185728259
0.3304007947 0.0420332365 0.0215053763
0.3528836668 0.0351906158 0.0244379286
0.3782991171 0.0224828944 0.0273704790
0.4056695998 0.0000000000 0.0303030312
0.4359726310 0.0000000000 0.0342130996
0.4672531784 0.0000000000 0.0381231681
0.5024437904 0.0000000000 0.0430107526
0.5395894647 0.0000000000 0.0478983372
0.5786901116 0.0000000000 0.0527859256
0.6207233667 0.0000000000 0.0586510263
0.6656891704 0.0000000000 0.0654936433
0.7126099467 0.0000000000 0.0723362640
0.7624633312 0.0000000000 0.0791788846
0.8152492642 0.0000000000 0.0869990215
0.8709677458 0.0000000000 0.0948191583
0.9296187758 0.0000000000 0.1036168113
0.0000000000 0.0899315774 0.0000000000
0.0000000000 0.0899315774 0.0000000000
0.0000000000 0.0899315774 0.0000000000
0.0430107526 0.0899315774 0.0000000000
0.0694037154 0.0909090936 0.0000000000
0.0918866098 0.0909090936 0.0000000000
0.1124144644 0.0909090936 0.0000000000
0.1339198500 0.0909090936 0.0000000000
0.1544477046 0.0899315774 0.0000000000
0.1739980429 0.0889540538 0.0000000000
0.1945258975 0.0879765376 0.0000000000
0.2150537670 0.0869990215 0.0000000000
0.2355816215 0.0860215053 0.0000000000
0.2551319599 0.0840664729 0.0039100684
0.2746823132 0.0821114406 0.0087976540
0.2952101529 0.0791788846 0.0127077224
0.3147605062 0.0772238523 0.0156402737
0.3352883756 0.0742913038 0.0185728259
0.3577712476 0.0703812316 0.0215053763
0.3831866980 0.0654936433 0.0244379286
0.4105571806 0.0596285425 0.0283479970
0.4408602118 0.0508308895 0.0322580636
0.4731182754 0.0400782004 0.0361681320
0.5083088875 0.0215053763 0.0410557203
0.5454545617 0.0000000000 0.0459433049
0.5845552087 0.0000000000 0.0518084057
0.6265884638 0.0000000000 0.0576735102
0.6715542674 0.0000000000 0.0645161271
0.7184750438 0.0000000000 0.0713587478
0.7683284283 0.0000000000 0.0782013685
0.8211143613 0.0000000000 0.0860215053
0.8758553267 0.0000000000 0.0938416421
0.9345063567 0.0000000000 0.1026392952
0.0000000000 0.1094819158 0.0000000000
0.0000000000 0.1094819158 0.0000000000
0.0000000000 0.1094819158 0.0000000000
0.0322580636 0.1104594320 0.0000000000
0.0645161271 0.1104594320 0.0000000000
0.0889540538 0.1104594320 0.0000000000
0.1114369482 0.1104594320 0.0000000000
0.1329423338 0.1104594320 0.0000000000
0.1544477046 0.1104594320 0.0000000000
0.1759530753 0.1104594320 0.0000000000
0.1964809448 0.1094819158 0.0000000000
0.2170087993 0.1085043997 0.0000000000
0.2375366539 0.1075268835 0.0000000000
0.2580645084 0.1065493673 0.0000000000
0.2785923779 0.1045943275 0.0000000000
0.2981427312 0.1036168113 0.0029325513
0.3186705709 0.1016617790 0.0097751711
0.3391984403 0.0997067466 0.0136852395
0.3626588583 0.0967741907 0.0175953079
0.3880742788 0.0938416421 0.0215053763
0.4164222777 0.0899315774 0.0254154447
0.4467253089 0.0840664729 0.0293255132
0.4789833724 0.0782013685 0.0342130996
0.5141739845 0.0713587478 0.0391006842
0.5513196588 0.0615835786 0.0439882688
0.5913978219 0.0488758571 0.0498533733
0.6334310770 0.0312805474 0.0557184741
0.6774193645 0.0000000000 0.0625610948
0.7243402004 0.0000000000 0.0694037154
0.7741935253 0.0000000000 0.0772238523
0.8269794583 0.0000000000 0.0850439891
0.8817204237 0.0000000000 0.0928641260
0.9403714538 0.0000000000 0.1016617790
0.0000000000 0.1300097704 0.0000000000
0.0000000000 0.1300097704 0.0000000000
0.0000000000 0.1300097704 0.0000000000
0.0000000000 0.1300097704 0.0000000000
0.0566959940 0.1300097704 0.0000000000
0.0850439891 0.1309872866 0.0000000000
0.1094819158 0.1309872866 0.0000000000
0.1319648027 0.1309872866 0.0000000000
0.1544477046 0.1309872866 0.0000000000
0.1759530753 0.1309872866 0.0000000000
0.1974584609 0.1309872866 0.0000000000
0.2189638317 0.1300097704 0.0000000000
0.2394916862 0.1290322542 0.0000000000
0.2600195408 0.1280547380 0.0000000000
0.2815249264 0.1270772219 0.0000000000
0.3020527959 0.1260997057 0.0000000000
0.3225806355 0.1251221895 0.0000000000
0.3440860212 0.1231671572 0.0009775171
0.3675464392 0.1212121248 0.0117302053
0.3929618895 0.1182795689 0.0166177917
0.4213098586 0.1153470203 0.0215053763
0.4516128898 0.1114369482 0.0263929628
0.4848484993 0.1065493673 0.0312805474
0.5200390816 0.1016617790 0.0361681320
0.5571847558 0.0948191583 0.0420332365
0.5972629786 0.0869990215 0.0478983372
0.6392961740 0.0782013685 0.0537634417
0.6842619777 0.0684261993 0.0606060624
0.7321603298 0.0557184741 0.0684261993
0.7810361385 0.0391006842 0.0752688199
0.8338220716 0.0087976540 0.0830889568
0.8885630369 0.0000000000 0.0918866098
0.9462365508 0.0000000000 0.1006842628
0.0000000000 0.1495601237 0.0000000000
0.0000000000 0.1495601237 0.0000000000
0.0000000000 0.1505376399 0.0000000000
0.0000000000 0.1505376399 0.0000000000
0.0439882688 0.1505376399 0.0000000000
0.0791788846 0.1515151560 0.0000000000
0.1055718511 0.1515151560 0.0000000000
0.1300097704 0.1515151560 0.0000000000
0.1534701884 0.1515151560 0.0000000000
0.1759530753 0.1515151560 0.0000000000
0.1974584609 0.1515151560 0.0000000000
0.2189638317 0.1515151560 0.0000000000
0.2414467186 0.1505376399 0.0000000000
0.2619745731 0.1505376399 0.0000000000
0.2834799588 0.1495601237 0.0000000000
0.3049853444 0.1485826075 0.0000000000
0.3255131841 0.1476050764 0.0000000000
0.3470185697 0.1466275603 0.0000000000
0.3714565039 0.1446725279 0.0000000000
0.3978494704 0.1427174956 0.0068426197
0.4261974692 0.1397849470 0.0156402737
0.4574780166 0.1358748823 0.0215053763
0.4907135963 0.1319648027 0.0273704790
0.5259041786 0.1270772219 0.0332355835
0.5640273690 0.1221896410 0.0391006842
0.6041055918 0.1163245365 0.0449657887
0.6471163034 0.1094819158 0.0518084057
0.6920821071 0.1006842628 0.0586510263
0.7390029430 0.0918866098 0.0664711669
0.7888563275 0.0830889568 0.0742913038
0.8406646848 0.0742913038 0.0821114406
0.8963831663 0.0664711669 0.0899315774
0.9540566802 0.0557184741 0.0987292305
0.0000000000 0.1700879782 0.0000000000
0.0000000000 0.1700879782 0.0000000000
0.0000000000 0.1710654944 0.0000000000
0.0000000000 0.1710654944 0.0000000000
0.0117302053 0.1710654944 0.0000000000
0.0694037154 0.1720430106 0.0000000000
0.1006842628 0.1720430106 0.0000000000
0.1270772219 0.1720430106 0.0000000000
0.1515151560 0.1730205268 0.0000000000
0.1739980429 0.1730205268 0.0000000000
0.1974584609 0.1730205268 0.0000000000
0.2199413478 0.1730205268 0.0000000000
0.2414467186 0.1720430106 0.0000000000
0.2629520893 0.1720430106 0.0000000000
0.2854349911 0.1710654944 0.0000000000
0.3069403768 0.1710654944 0.0000000000
0.3274682164 0.1700879782 0.0000000000
0.3499511182 0.1691104621 0.0000000000
0.3743890524 0.1671554297 0.0000000000
0.4007820189 0.1652003974 0.0000000000
0.4301075339 0.1632453501 0.0000000000
0.4613880813 0.1603128016 0.0136852395
0.4956011772 0.1564027369 0.0224828944
0.5317693353 0.1515151560 0.0293255132
0.5698924661 0.1466275603 0.0351906158
0.6109482050 0.1417399794 0.0420332365
0.6539589167 0.1348973662 0.0488758571
0.6989247203 0.1280547380 0.0557184741
0.7468230724 0.1202346012 0.0645161271
0.7966764569 0.1133919880 0.0723362640
0.8484848738 0.1055718511 0.0801564008
0.9042032957 0.0977517143 0.0889540538
0.9608992934 0.0889540538 0.0977517143
0.0000000000 0.1915933490 0.0000000000
0.0000000000 0.1915933490 0.0000000000
0.0000000000 0.1915933490 0.0000000000
0.0000000000 0.1915933490 0.0000000000
0.0000000000 0.1925708652 0.0000000000
0.0557184741 0.1925708652 0.0000000000
0.0928641260 0.1925708652 0.0000000000
0.1221896410 0.1935483813 0.0000000000
0.1476050764 0.1935483813 0.0000000000
0.1720430106 0.1935483813 0.0000000000
0.1955034286 0.1945258975 0.0000000000
0.2189638317 0.1945258975 0.0000000000
0.2414467186 0.1945258975 0.0000000000
0.2639296055 0.1935483813 0.0000000000
0.2864125073 0.1935483813 0.0000000000
0.3079178929 0.1925708652 0.0000000000
0.3294232786 0.1925708652 0.0000000000
0.3519061506 0.1915933490 0.0000000000
0.3773216009 0.1896383166 0.0000000000
0.4046920836 0.1886608005 0.0000000000
0.4330400825 0.1867057681 0.0000000000
0.4652981460 0.1837732196 0.0000000000
0.4995112419 0.1798631549 0.0136852395
0.5366569161 0.1759530753 0.0234604105
0.5757575631 0.1710654944 0.0303030312
0.6168133020 0.1661779135 0.0381231681
0.6598240733 0.1593352854 0.0459433049
0.7057673335 0.1534701884 0.0527859256
0.7536656857 0.1466275603 0.0606060624
0.8044965863 0.1388074309 0.0694037154
0.8563050032 0.1309872866 0.0782013685
0.9120234847 0.1231671572 0.0869990215
0.9696969986 0.1163245365 0.0967741907
0.0000000000 0.2121212184 0.0000000000
0.0000000000 0.2121212184 0.0000000000
0.0000000000 0.2121212184 0.0000000000
0.0000000000 0.2130987346 0.0000000000
0.0000000000 0.2130987346 0.0000000000
0.0263929628 0.2140762508 0.0000000000
0.0830889568 0.2140762508 0.0000000000
0.1163245365 0.2140762508 0.0000000000
0.1436950117 0.2150537670 0.0000000000
0.1700879782 0.2150537670 0.0000000000
0.1945258975 0.2150537670 0.0000000000
0.2179863155 0.2150537670 0.0000000000
0.2414467186 0.2160312831 0.0000000000
0.2639296055 0.2150537670 0.0000000000
0.2864125073 0.2150537670 0.0000000000
0.3088954091 0.2150537670 0.0000000000
0.3304007947 0.2140762508 0.0000000000
0.3538611829 0.2140762508 0.0000000000
0.3782991171 0.2121212184 0.0000000000
0.4066471159 0.2111437023 0.0000000000
0.4359726310 0.2091886550 0.0000000000
0.4692082107 0.2062561065 0.0000000000
0.5034213066 0.2033235580 0.0000000000
0.5405669808 0.1994134933 0.0136852395
0.5806451440 0.1955034286 0.0244379286
0.6226783991 0.1896383166 0.0342130996
0.6666666865 0.1847507358 0.0410557203
0.7126099467 0.1769305915 0.0498533733
0.7614858150 0.1700879782 0.0576735102
0.8123167157 0.1632453501 0.0674486831
0.8651026487 0.1564027369 0.0762463361
0.9198436141 0.1485826075 0.0850439891
0.9775171280 0.1417399794 0.0938416421
0.0000000000 0.2336265892 0.0000000000
0.0000000000 0.2336265892 0.0000000000
0.0000000000 0.2336265892 0.0000000000
0.0000000000 0.2346041054 0.0000000000
0.0000000000 0.2346041054 0.0000000000
0.0000000000 0.2346041054 0.0000000000
0.0684261993 0.2355816215 0.0000000000
0.1075268835 0.2355816215 0.0000000000
0.1378299147 0.2365591377 0.0000000000
0.1652003974 0.2365591377 0.0000000000
0.1906158328 0.2365591377 0.0000000000
0.2160312831 0.2375366539 0.0000000000
0.2394916862 0.2375366539 0.0000000000
0.2629520893 0.2375366539 0.0000000000
0.2864125073 0.2375366539 0.0000000000
0.3088954091 0.2365591377 0.0000000000
0.3313783109 0.2365591377 0.0000000000
0.3538611829 0.2355816215 0.0000000000
0.3792766333 0.2346041054 0.0000000000
0.4076246321 0.2336265892 0.0000000000
0.4389051795 0.2316715568 0.0000000000
0.4711632431 0.2287390083 0.0000000000
0.5063538551 0.2258064449 0.0000000000
0.5444770455 0.2228738964 0.0000000000
0.5845552087 0.2179863155 0.0146627566
0.6275659800 0.2130987346 0.0273704790
0.6725317836 0.2072336227 0.0371456519
0.7194526196 0.2003910094 0.0459433049
0.7683284283 0.1945258975 0.0547409579
0.8191593289 0.1857282519 0.0645161271
0.8729227781 0.1779081076 0.0733137801
0.9286412597 0.1710654944 0.0830889568
0.9863147736 0.1642228812 0.0928641260
0.0000000000 0.2551319599 0.0000000000
0.0000000000 0.2551319599 0.0000000000
0.0000000000 0.2551319599 0.0000000000
0.0000000000 0.2561094761 0.0000000000
0.0000000000 0.2561094761 0.0000000000
0.0000000000 0.2561094761 0.0000000000
0.0439882688 0.2570869923 0.0000000000
0.0957966745 0.2570869923 0.0000000000
0.1300097704 0.2580645084 0.0000000000
0.1603128016 0.2580645084 0.0000000000
0.1876832843 0.2580645084 0.0000000000
0.2130987346 0.2590420246 0.0000000000
0.2375366539 0.2590420246 0.0000000000
0.2609970570 0.2590420246 0.0000000000
0.2844574749 0.2590420246 0.0000000000
0.3079178929 0.2590420246 0.0000000000
0.3304007947 0.2580645084 0.0000000000
0.3538611829 0.2570869923 0.0000000000
0.3802541494 0.2561094761 0.0000000000
0.4086021483 0.2551319599 0.0000000000
0.4389051795 0.2541544437 0.0000000000
0.4731182754 0.2512218952 0.0000000000
0.5092864037 0.2492668629 0.0000000000
0.5474095941 0.2453567982 0.0000000000
0.5884652734 0.2414467186 0.0000000000
0.6314760447 0.2365591377 0.0175953079
0.6774193645 0.2306940407 0.0312805474
0.7253177166 0.2238514125 0.0410557203
0.7751710415 0.2170087993 0.0508308895
0.8269794583 0.2091886550 0.0606060624
0.8807429075 0.2023460418 0.0703812316
0.9364613891 0.1935483813 0.0801564008
0.9941349030 0.1857282519 0.0899315774
0.0000000000 0.2766373456 0.0000000000
0.0000000000 0.2766373456 0.0000000000
0.0000000000 0.2766373456 0.0000000000
0.0000000000 0.2776148617 0.0000000000
0.0000000000 0.2776148617 0.0000000000
0.0000000000 0.2776148617 0.0000000000
0.0000000000 0.2785923779 0.0000000000
0.0801564008 0.2785923779 0.0000000000
0.1212121248 0.2795698941 0.0000000000
0.1534701884 0.2795698941 0.0000000000
0.1818181872 0.2795698941 0.0000000000
0.2082111388 0.2805474102 0.0000000000
0.2346041054 0.2805474102 0.0000000000
0.2590420246 0.2805474102 0.0000000000
0.2825024426 0.2805474102 0.0000000000
0.3069403768 0.2795698941 0.0000000000
0.3294232786 0.2795698941 0.0000000000
0.3538611829 0.2785923779 0.0000000000
0.3802541494 0.2785923779 0.0000000000
0.4086021483 0.2776148617 0.0000000000
0.4398826957 0.2756598294 0.0000000000
0.4740957916 0.2737047970 0.0000000000
0.5102639198 0.2707722485 0.0000000000
0.5493646264 0.2678397000 0.0000000000
0.5913978219 0.2639296055 0.0000000000
0.6353861094 0.2590420246 0.0000000000
0.6813294291 0.2531769276 0.0224828944
0.7302052975 0.2473118305 0.0351906158
0.7810361385 0.2394916862 0.0459433049
0.8338220716 0.2326490730 0.0566959940
0.8875855207 0.2238514125 0.0674486831
0.9442815185 0.2160312831 0.0772238523
1.0000000000 0.2082111388 0.0879765376
0.0000000000 0.2981427312 0.0000000000
0.0000000000 0.2981427312 0.0000000000
0.0000000000 0.2981427312 0.0000000000
0.0000000000 0.2991202474 0.0000000000
0.0000000000 0.2991202474 0.0000000000
0.0000000000 0.2991202474 0.0000000000
0.0000000000 0.3000977635 0.0000000000
0.0566959940 0.3000977635 0.0000000000
0.1085043997 0.3010752797 0.0000000000
0.1446725279 0.3010752797 0.0000000000
0.1759530753 0.3010752797 0.0000000000
0.2043010741 0.3010752797 0.0000000000
0.2297165245 0.3020527959 0.0000000000
0.2561094761 0.3020527959 0.0000000000
0.2805474102 0.3020527959 0.0000000000
0.3040078282 0.3020527959 0.0000000000
0.3284457624 0.3010752797 0.0000000000
0.3528836668 0.3010752797 0.0000000000
0.3792766333 0.3000977635 0.0000000000
0.4086021483 0.2991202474 0.0000000000
0.4398826957 0.2971652150 0.0000000000
0.4740957916 0.2961876690 0.0000000000
0.5112414360 0.2932551205 0.0000000000
0.5513196588 0.2903225720 0.0000000000
0.5933528543 0.2864125073 0.0000000000
0.6383186579 0.2815249264 0.0000000000
0.6862170100 0.2756598294 0.0000000000
0.7350928783 0.2697947323 0.0273704790
0.7859237790 0.2629520893 0.0400782004
0.8396871686 0.2541544437 0.0518084057
0.8954056501 0.2463343143 0.0625610948
0.9521016479 0.2375366539 0.0742913038
1.0000000000 0.2287390083 0.0850439891
0.0000000000 0.3196480870 0.0000000000
0.0000000000 0.3196480870 0.0000000000
0.0000000000 0.3196480870 0.0000000000
0.0000000000 0.3196480870 0.0000000000
0.0000000000 0.3206256032 0.0000000000
0.0000000000 0.3206256032 0.0000000000
0.0000000000 0.3216031194 0.0000000000
0.0000000000 0.3216031194 0.0000000000
0.0928641260 0.3216031194 0.0000000000
0.1348973662 0.3225806355 0.0000000000
0.1671554297 0.3225806355 0.0000000000
0.1984359771 0.3225806355 0.0000000000
0.2258064449 0.3225806355 0.0000000000
0.2512218952 0.3225806355 0.0000000000
0.2776148617 0.3225806355 0.0000000000
0.3020527959 0.3225806355 0.0000000000
0.3255131841 0.3225806355 0.0000000000
0.3509286344 0.3216031194 0.0000000000
0.3782991171 0.3216031194 0.0000000000
0.4076246321 0.3206256032 0.0000000000
0.4398826957 0.3186705709 0.0000000000
0.4740957916 0.3176930547 0.0000000000
0.5112414360 0.3157380223 0.0000000000
0.5522971749 0.3118279576 0.0000000000
0.5953079462 0.3088954091 0.0000000000
0.6402736902 0.3040078282 0.0000000000
0.6881720424 0.2991202474 0.0000000000
0.7390029430 0.2922776043 0.0136852395
0.7917888761 0.2844574749 0.0342130996
0.8455523252 0.2766373456 0.0469208211
0.9022482634 0.2678397000 0.0586510263
0.9599217772 0.2590420246 0.0703812316
1.0000000000 0.2502443790 0.0811339170
0.0000000000 0.3421309888 0.0000000000
0.0000000000 0.3421309888 0.0000000000
0.0000000000 0.3421309888 0.0000000000
0.0000000000 0.3421309888 0.0000000000
0.0000000000 0.3431085050 0.0000000000
0.0000000000 0.3431085050 0.0000000000
0.0000000000 0.3431085050 0.0000000000
0.0000000000 0.3440860212 0.0000000000
0.0674486831 0.3440860212 0.0000000000
0.1212121248 0.3440860212 0.0000000000
0.1583577693 0.3450635374 0.0000000000
0.1896383166 0.3450635374 0.0000000000
0.2189638317 0.3450635374 0.0000000000
0.2463343143 0.3450635374 0.0000000000
0.2727272809 0.3450635374 0.0000000000
0.2981427312 0.3450635374 0.0000000000
0.3225806355 0.3450635374 0.0000000000
0.3479960859 0.3440860212 0.0000000000
0.3753665686 0.3440860212 0.0000000000
0.4056695998 0.3431085050 0.0000000000
0.4379276633 0.3421309888 0.0000000000
0.4740957916 0.3401759565 0.0000000000
0.5122189522 0.3382209241 0.0000000000
0.5522971749 0.3352883756 0.0000000000
0.5962854624 0.3313783109 0.0000000000
0.6422287226 0.3274682164 0.0000000000
0.6911045909 0.3216031194 0.0000000000
0.7419354916 0.3157380223 0.0000000000
0.7956989408 0.3079178929 0.0224828944
0.8514174223 0.3000977635 0.0400782004
0.9081134200 0.2913000882 0.0527859256
0.9667643905 0.2815249264 0.0664711669
1.0000000000 0.2717497647 0.0782013685
0.0000000000 0.3665689230 0.0000000000
0.0000000000 0.3665689230 0.0000000000
0.0000000000 0.3665689230 0.0000000000
0.0000000000 0.3665689230 0.0000000000
0.0000000000 0.3675464392 0.0000000000
0.0000000000 0.3675464392 0.0000000000
0.0000000000 0.3685239553 0.0000000000
0.0000000000 0.3685239553 0.0000000000
0.0000000000 0.3685239553 0.0000000000
0.0997067466 0.3695014715 0.0000000000
0.1446725279 0.3695014715 0.0000000000
0.1798631549 0.3695014715 0.0000000000
0.2111437023 0.3695014715 0.0000000000
