proprietary/odm/etc/camera/filters_lut/dolby_preview_3dlut.cube
#Created by : Dolby Laboratories
#Copyright: (C) Copyright 2022 Dolby Laboratories
#is_rgb_input 1
#is_rgb_output 1
#input_offset 0.000000
#shape_order 1.000000
#format 6
# MaxLuma:1000.00 MinLuma:0.00010 Eotf=Gamma
#LUT Size
LUT_3D_SIZE 5
#data domain
DOMAIN_MIN 0 0 0
DOMAIN_MAX 1.0 1.0 1.0
#LUT data points
0.0000000000 0.0009775171 0.0000000000
0.1466275603 0.0000000000 0.0087976540
0.2991202474 0.0000000000 0.0234604105
0.5278592110 0.0000000000 0.0498533733
0.9208211303 0.0000000000 0.1045943275
0.0000000000 0.1495601237 0.0000000000
0.1534701884 0.1515151560 0.0000000000
0.3255131841 0.1476050764 0.0000000000
0.5640273690 0.1221896410 0.0391006842
0.9540566802 0.0557184741 0.0987292305
0.0000000000 0.3196480870 0.0000000000
0.0928641260 0.3216031194 0.0000000000
0.3255131841 0.3225806355 0.0000000000
0.5953079462 0.3088954091 0.0000000000
1.0000000000 0.2502443790 0.0811339170
0.0000000000 0.5708699822 0.0000000000
0.0000000000 0.5728250146 0.0000000000
0.2385141701 0.5738025308 0.0000000000
0.5728250146 0.5669599175 0.0000000000
1.0000000000 0.5122189522 0.0000000000
0.0000000000 1.0000000000 0.0000000000
0.0000000000 1.0000000000 0.0000000000
0.0000000000 1.0000000000 0.0000000000
0.3352883756 1.0000000000 0.0000000000
0.9990224838 0.9902248383 0.0000000000
0.0000000000 0.0117302053 0.1104594320
0.1485826075 0.0000000000 0.1319648027
0.3088954091 0.0000000000 0.1476050764
0.5454545617 0.0000000000 0.1632453501
0.9452590346 0.0000000000 0.1827957034
0.0000000000 0.1515151560 0.1436950117
0.1505376399 0.1524926722 0.1485826075
0.3284457624 0.1476050764 0.1583577693
0.5767350793 0.1163245365 0.1671554297
0.9765396118 0.0000000000 0.1827957034
0.0000000000 0.3225806355 0.1603128016
0.0811339170 0.3245356679 0.1612903178
0.3255131841 0.3245356679 0.1642228812
0.6021505594 0.3098729253 0.1691104621
1.0000000000 0.2453567982 0.1798631549
0.0000000000 0.5767350793 0.1564027369
0.0000000000 0.5786901116 0.1564027369
0.2355816215 0.5786901116 0.1564027369
0.5747800469 0.5708699822 0.1564027369
1.0000000000 0.5141739845 0.1642228812
0.0000000000 1.0000000000 0.0840664729
0.0000000000 1.0000000000 0.0830889568
0.0000000000 1.0000000000 0.0801564008
0.3313783109 1.0000000000 0.0694037154
1.0000000000 0.9931573868 0.0664711669
0.0000000000 0.0283479970 0.2316715568
0.1456500441 0.0000000000 0.2561094761
0.3157380223 0.0000000000 0.2805474102
0.5620723367 0.0000000000 0.2991202474
0.9775171280 0.0000000000 0.3079178929
0.0000000000 0.1534701884 0.2717497647
0.1397849470 0.1544477046 0.2825024426
0.3274682164 0.1476050764 0.2991202474
0.5855327249 0.1085043997 0.3108504415
1.0000000000 0.0000000000 0.3118279576
0.0000000000 0.3235581517 0.3079178929
0.0351906158 0.3255131841 0.3108504415
0.3206256032 0.3245356679 0.3167155385
0.6041055918 0.3108504415 0.3235581517
1.0000000000 0.2365591377 0.3196480870
0.0000000000 0.5806451440 0.3216031194
0.0000000000 0.5816226602 0.3216031194
0.2248289287 0.5806451440 0.3235581517
0.5747800469 0.5728250146 0.3245356679
1.0000000000 0.5161290169 0.3196480870
0.0000000000 1.0000000000 0.2913000882
0.0000000000 1.0000000000 0.2903225720
0.0000000000 1.0000000000 0.2903225720
0.3264907002 1.0000000000 0.2883675396
1.0000000000 0.9990224838 0.2834799588
0.0000000000 0.0576735102 0.4281525016
0.1143695042 0.0000000000 0.4574780166
0.3157380223 0.0000000000 0.4926686287
0.5806451440 0.0000000000 0.5151515007
1.0000000000 0.0000000000 0.5073313713
0.0000000000 0.1622678339 0.4682306945
0.0909090936 0.1603128016 0.4868035316
0.3176930547 0.1495601237 0.5112414360
0.5913978219 0.0997067466 0.5288367271
1.0000000000 0.0000000000 0.5171065331
0.0000000000 0.3245356679 0.5190615654
0.0000000000 0.3255131841 0.5268816948
0.3030303121 0.3245356679 0.5376344323
0.5972629786 0.3088954091 0.5483871102
1.0000000000 0.2258064449 0.5347018838
0.0000000000 0.5796676278 0.5503421426
0.0000000000 0.5806451440 0.5522971749
0.1935483813 0.5796676278 0.5552297235
0.5650048852 0.5708699822 0.5571847558
1.0000000000 0.5171065331 0.5483871102
0.0000000000 1.0000000000 0.5317693353
0.0000000000 1.0000000000 0.5317693353
0.0000000000 1.0000000000 0.5317693353
0.3069403768 1.0000000000 0.5317693353
1.0000000000 1.0000000000 0.5229716301
0.0000000000 0.1329423338 0.8543499708
0.0000000000 0.1104594320 0.8826979399
0.2453567982 0.0000000000 0.9296187758
0.5669599175 0.0000000000 0.9696969986
1.0000000000 0.0000000000 0.9501466155
0.0000000000 0.2003910094 0.8797653913
0.0000000000 0.1915933490 0.9032257795
0.2365591377 0.1671554297 0.9423264861
0.5659824014 0.0977517143 0.9775171280
1.0000000000 0.0000000000 0.9589442611
0.0000000000 0.3343108594 0.9296187758
0.0000000000 0.3323558271 0.9423264861
0.1984359771 0.3274682164 0.9677419066
0.5581622720 0.3069403768 0.9921798706
1.0000000000 0.2091886550 0.9775171280
0.0000000000 0.5708699822 0.9814271927
0.0000000000 0.5718474984 0.9863147736
0.0000000000 0.5708699822 0.9970674515
0.5161290169 0.5630498528 1.0000000000
1.0000000000 0.5102639198 0.9960899353
0.0000000000 1.0000000000 0.9833822250
0.0000000000 1.0000000000 0.9833822250
0.0000000000 1.0000000000 0.9853372574
0.2062561065 1.0000000000 0.9863147736
0.9853372574 0.9960899353 0.9726295471
